resources/modules/editor/src/svgs/accordion.svg

<!-- Generated by IcoMoon.io -->
<svg version="1.1" xmlns="http://www.w3.org/2000/svg" width="32" height="32" viewBox="0 0 32 32">
<title>accordion</title>
<path d="M30.016 8h-28c-1.12 0-2.016 0.896-2.016 1.984v12c0 1.12 0.896 2.016 2.016 2.016h28c1.088 0 1.984-0.896 1.984-2.016v-12c0-1.088-0.896-1.984-1.984-1.984zM30.656 21.984c0 0.384-0.288 0.672-0.64 0.672h-28c-0.384 0-0.672-0.288-0.672-0.672v-12c0-0.352 0.288-0.64 0.672-0.64h28c0.352 0 0.64 0.288 0.64 0.64v12zM3.328 5.344h25.344c0.352 0 0.672-0.32 0.672-0.672s-0.32-0.672-0.672-0.672h-25.344c-0.352 0-0.672 0.288-0.672 0.672s0.32 0.672 0.672 0.672zM3.328 1.344h25.344c0.352 0 0.672-0.32 0.672-0.672s-0.32-0.672-0.672-0.672h-25.344c-0.352 0-0.672 0.288-0.672 0.672s0.32 0.672 0.672 0.672zM28.672 30.656h-25.344c-0.352 0-0.672 0.32-0.672 0.672s0.32 0.672 0.672 0.672h25.344c0.352 0 0.672-0.288 0.672-0.672s-0.32-0.672-0.672-0.672zM28.672 26.656h-25.344c-0.352 0-0.672 0.32-0.672 0.672s0.32 0.672 0.672 0.672h25.344c0.352 0 0.672-0.288 0.672-0.672s-0.32-0.672-0.672-0.672z"></path>
</svg>

<svg width="32" height="32" viewBox="0 0 32 32" fill="none" xmlns="http://www.w3.org/2000/svg">
<g clip-path="url(#clip0_4010_993)">
<path d="M30.016 8H2.016C0.896 8 0 8.896 0 9.984V21.984C0 23.104 0.896 24 2.016 24H30.016C31.104 24 32 23.104 32 21.984V9.984C32 8.896 31.104 8 30.016 8V8ZM30.656 21.984C30.656 22.368 30.368 22.656 30.016 22.656H2.016C1.632 22.656 1.344 22.368 1.344 21.984V9.984C1.344 9.632 1.632 9.344 2.016 9.344H30.016C30.368 9.344 30.656 9.632 30.656 9.984V21.984ZM3.328 5.344H28.672C29.024 5.344 29.344 5.024 29.344 4.672C29.344 4.32 29.024 4 28.672 4H3.328C2.976 4 2.656 4.288 2.656 4.672C2.656 5.056 2.976 5.344 3.328 5.344V5.344ZM3.328 1.344H28.672C29.024 1.344 29.344 1.024 29.344 0.672C29.344 0.32 29.024 0 28.672 0H3.328C2.976 0 2.656 0.288 2.656 0.672C2.656 1.056 2.976 1.344 3.328 1.344V1.344ZM28.672 30.656H3.328C2.976 30.656 2.656 30.976 2.656 31.328C2.656 31.68 2.976 32 3.328 32H28.672C29.024 32 29.344 31.712 29.344 31.328C29.344 30.944 29.024 30.656 28.672 30.656ZM28.672 26.656H3.328C2.976 26.656 2.656 26.976 2.656 27.328C2.656 27.68 2.976 28 3.328 28H28.672C29.024 28 29.344 27.712 29.344 27.328C29.344 26.944 29.024 26.656 28.672 26.656Z" fill="black"/>
</g>
<defs>
<clipPath id="clip0_4010_993">
<rect width="32" height="32" fill="white"/>
</clipPath>
</defs>
</svg>
